images/icons/generic-shopping-tag.svg

<svg fill="none" height="24" viewBox="0 0 24 24" width="24" xmlns="http://www.w3.org/2000/svg" xmlns:xlink="http://www.w3.org/1999/xlink"><clipPath id="a"><path d="m0 0h24v24h-24z"/></clipPath><g clip-path="url(#a)"><path d="m14.7184 23.3091c-.4606.4606-1.0313.6909-1.7121.6909-.6809 0-1.2516-.2303-1.7122-.6909l-10.573199-10.5732c-.220275-.2203-.395494-.4806-.525657-.781-.1301627-.3003-.195244-.6207-.195244-.9612v-8.5907c0-.66082.235294-1.22653.705882-1.697118s1.036298-.705882 1.697118-.705882h8.5907c.3405 0 .6609.0650813.9612.195244.3004.130163.5607.305382.781.525657l10.5732 10.603299c.4606.4605.6909 1.0262.6909 1.6971 0 .6708-.2303 1.2365-.6909 1.6971zm-9.31164-16.10009c.50062 0 .92616-.17522 1.27659-.52566.35044-.35043.52566-.77597.52566-1.27659 0-.50063-.17522-.92616-.52566-1.2766-.35043-.35044-.77597-.52565-1.27659-.52565-.50063 0-.92616.17521-1.2766.52565s-.52565.77597-.52565 1.2766c0 .50062.17521.92616.52565 1.27659.35044.35044.77597.52566 1.2766.52566z" fill="#fff"/></g></svg>

<svg width="24" height="24" viewBox="0 0 24 24" fill="none" xmlns="http://www.w3.org/2000/svg">
<g clip-path="url(#clip0_1450_838)">
<path d="M14.7184 23.3091C14.2578 23.7697 13.6871 24 13.0063 24C12.3254 24 11.7547 23.7697 11.2941 23.3091L0.720901 12.7359C0.500626 12.5156 0.325407 12.2553 0.195244 11.9549C0.0650813 11.6546 0 11.3342 0 10.9937V2.403C0 1.74218 0.235294 1.17647 0.705882 0.705882C1.17647 0.235294 1.74218 0 2.403 0H10.9937C11.3342 0 11.6546 0.0650813 11.9549 0.195244C12.2553 0.325407 12.5156 0.500626 12.7359 0.720901L23.3091 11.3242C23.7697 11.7847 24 12.3504 24 13.0213C24 13.6921 23.7697 14.2578 23.3091 14.7184L14.7184 23.3091ZM5.40676 7.20901C5.90738 7.20901 6.33292 7.03379 6.68335 6.68335C7.03379 6.33292 7.20901 5.90738 7.20901 5.40676C7.20901 4.90613 7.03379 4.4806 6.68335 4.13016C6.33292 3.77972 5.90738 3.60451 5.40676 3.60451C4.90613 3.60451 4.4806 3.77972 4.13016 4.13016C3.77972 4.4806 3.60451 4.90613 3.60451 5.40676C3.60451 5.90738 3.77972 6.33292 4.13016 6.68335C4.4806 7.03379 4.90613 7.20901 5.40676 7.20901Z" fill="white"/>
</g>
<defs>
<clipPath id="clip0_1450_838">
<rect width="24" height="24" fill="white"/>
</clipPath>
</defs>
</svg>
